X:3436
T:La rivire (P. Bouffard)
O:england
C:Trio Bouffard: Revenant de Paris
M:3/4
L:1/4
K:G
G>GG|G2A|B>BB|B2c|d>dd|dgf|e2d|ded|c3|ABc|
BA/B/d/B/|GAB|A3|1 EFG|A3-|A3:|2 EF>A|G3|GF>G||
|:E-E/F/-F|GA B/c/|B2G|GFG|A>FD|1DED|B2G|GF>G:|2 DED||
